X: 24
T: Rolling Waves, The
Z: jmeme
S: https://thesession.org/tunes/88#setting48430
R: jig
M: 6/8
L: 1/8
K: Dmaj
|:FEF DED|D2d cAG|FEF FED|A2F GFE|
FEF DED|D2d cAG|FAF GBG|A2F GFE:|
|:D2d cAd|cAd cAG|F2d cAG|FAF GFE|
D2d cde|fed cAG|FAF GBG|A2F GFE:|

